src/assets/menu-note.svg

<svg width="20" height="20" viewBox="0 0 20 20" fill="none" xmlns="http://www.w3.org/2000/svg">
<path d="M18.3307 10.8333V0H1.66406V20H8.67156C12.7191 20 11.4507 13.3333 11.4507 13.3333C13.9582 13.9542 18.3307 13.6825 18.3307 10.8333ZM14.9974 5H4.9974V4.16667H14.9974V5ZM14.9974 7.5H4.9974V6.66667H14.9974V7.5ZM14.9974 10H4.9974V9.16667H14.9974V10ZM13.2549 15.1858C14.9607 15.5842 17.2591 14.9533 18.3307 14.2033C17.0857 15.8683 13.9724 18.96 12.1374 19.9375C13.1007 18.9642 13.4399 16.4092 13.2549 15.1858Z" fill="#B1B1B1"/>
</svg>

<svg xmlns="http://www.w3.org/2000/svg" width="20" height="20" fill="none"><path fill="#B1B1B1" d="M18.33 10.833V0H1.665v20h7.008c4.047 0 2.779-6.667 2.779-6.667 2.507.621 6.88.35 6.88-2.5M14.998 5h-10v-.833h10zm0 2.5h-10v-.833h10zm0 2.5h-10v-.833h10zm-1.742 5.186c1.706.398 4.004-.233 5.076-.983-1.245 1.665-4.359 4.757-6.194 5.735.964-.974 1.303-3.529 1.118-4.752"/></svg>
